X:1
T:Easter Bells
T:Easter Bells
T:Pauline Frances Camp
T:Pauline Frances Camp, 1912
T:Public Domain Courtesy of the Cyber Hymnal™
T:Public Domain Courtesy of the Cyber Hymnal™
C:Pauline Frances Camp
Z:Public Domain
Z:Courtesy of the Cyber Hymnal™
%%score ( 1 2 ) ( 3 4 )
L:1/8
Q:1/4=95
M:4/4
K:Ab
V:1 treble 
V:2 treble 
V:3 bass 
V:4 bass 
V:1
 [CE]3 [CE] [DE]3 [DE] | [DE][D=E][DF][DG] [DF]2 [C_E]2 | [CE]3 [CE] [CE]3 [CE] | %3
w: 1.~East- er sun- light,|o- ver hill and val- ley,|East- er blos- soms,|
w: 2.~Lit- tle child- ren,|join- ing in the chor- us,|Swell the e- choes,|
w: 3.~Je- sus Christ a-|rose on East- er morn- ing!|’Tis the sto- ry|
 [B,E][B,E][=DF][DB] (B2 E2) | [CE]3 [CE] [DE]3 [DE] | [DE][D=E][DF][DG] [DF]2 [C_E]2 | %6
w: fair- est of the year; *|East- er breez- es|bear- ing on their pin- ions,|
w: as they march a- long; *|We, a- mong them,|glad- ly lend our voic- es;|
w: that the Bi- ble tells; *|Rose, that we might|live with Him for- ev- er—|
 [Ec]>[Ec] [Ec][Ec] [Ec][EB][EG][FA] |"^riten." [EG][=DF][^C=E][DF] [_DB]4 |: %8
w: Mu- sic of the East- er bells, in|chim- ing sweet and clear.|
w: Je- sus loves to hear us sing our|hap- py East- er song.|
w: This the hap- py mes- sage of the|joy- ous East- er bells.|
"^Refrain" [Ec]>[CF] [CF][CG] [CG][CA] [CA]2 | [Ec]>[Ec] [Fd][Ec] [=Dc]2 [DB]2 |1 %10
w: East- er bells are chim- ing out,|Hear their sil- ver ring- ing;|
w: ||
w: East- er bells and voic- es, too,|Join to- ge- ther sing- ing:|
 [DB]>[DF] [DF][DG] [DG][EA][GB][Ac] | [Ge][Gd][EB][E=B] [Ec]4 :|2 %12
w: East- er voic- es ev- ery- where In|joy- ful chor- us sing.|
w: ||
w: ~ ~ ~ ~ ~ ~ ~ ~|~ ~ ~ ~ ~|
 [FA]>[FA] [FG][FA] [Ee][Ae][Ae][Fd] || [Ec][DB][CA][DG] [CA]4 |] %14
w: ||
w: ||
w: Glo- ry to our ris- en Lord, Our|Sav- ior and our king.|
V:2
 x8 | x8 | x8 | x4 _D4 | x8 | x8 | x8 | x8 |: x8 | x8 |1 x8 | x8 :|2 x8 || x8 |] %14
V:3
 [A,,A,]3 [A,,A,] [B,,G,]3 [B,,G,] | [E,G,][E,G,][E,G,][E,G,] [A,,A,]2 [A,,A,]2 | %2
 [A,,A,]3 [A,,A,] [=A,,^F,]3 [A,,F,] | [B,,G,][B,,G,][B,,A,][B,,A,] [E,G,]4 | %4
 [A,,A,]3 [A,,A,] [B,,G,]3 [B,,G,] | [E,G,][E,G,][E,G,][E,G,] [A,,A,]2 [A,,A,]2 | %6
 [=A,,^F,]>[A,,F,] [A,,F,][A,,F,] [B,,G,][B,,G,][B,,B,][B,,B,] | %7
 [B,,B,][B,,B,][B,,G,][B,,A,] [E,,E,G,]4 |: %8
 [A,,A,]>[A,,A,] [A,,A,][A,,E,] [A,,E,][A,,E,] [A,,A,]2 | %9
 [F,=A,]>[F,A,] [F,A,][F,A,] [B,,_A,]2 [B,,A,]2 |1 %10
 [E,G,]>[E,G,] [E,G,][E,B,] [E,B,][E,C][E,D][E,C] | [E,B,][E,B,][E,G,][E,G,] A,4 :|2 %12
 [=B,,A,]>[B,,A,] [B,,A,][B,,A,] [C,A,][E,=B,][A,C][D,A,] || [E,A,][E,G,][E,A,][E,B,] [A,,A,]4 |] %14
V:4
 x8 | x8 | x8 | x8 | x8 | x8 | x8 | x8 |: x8 | x8 |1 x8 | x4 A,4 :|2 x8 || x8 |] %14

